icons/plane-fill.svg

<svg xmlns="http://www.w3.org/2000/svg" width="24" height="24" fill="none"><g clip-path="url(#a)"><g><path fill="#121212" d="M14 8.947L22 14V16L14 13.474V18.834L17 20.5V22L12.5 21L8 22V20.5L11 18.833V13.473L3 16V14L11 8.947V3.5C11 3.10218 11.158 2.72064 11.4393 2.43934C11.7206 2.15804 12.1022 2 12.5 2C12.8978 2 13.2794 2.15804 13.5607 2.43934C13.842 2.72064 14 3.10218 14 3.5V8.947Z"/></g></g><defs><clipPath id="a"><rect width="24" height="24" fill="white"/></clipPath></defs></svg>

<svg width="24" height="24" fill="none" xmlns="http://www.w3.org/2000/svg"><g clip-path="url(#a)"><path d="M14 8.947 22 14v2l-8-2.526v5.36l3 1.666V22l-4.5-1L8 22v-1.5l3-1.667v-5.36L3 16v-2l8-5.053V3.5a1.5 1.5 0 1 1 3 0v5.447Z" /></g><defs><clipPath id="a"><path fill="#fff" d="M0 0h24v24H0z"/></clipPath></defs></svg>
